X:1
T:Magnetic Rag.
T:MAGNETIC  RAG
T:by SCOTT  JOPLIN
T:Composer of “Maple Leaf Rag”
T:Public Domain
T:Public Domain
T:Public Domain
T:Public Domain
T:Public Domain
T:Public Domain
T:Public Domain
T:Public Domain
T:Public Domain
C:Scott Joplin
Z:Public Domain
%%score { ( 1 3 5 ) | ( 2 4 6 ) }
L:1/8
Q:1/4=117
M:4/4
K:Bb
V:1 treble nm="Piano" snm="Pno."
V:3 treble 
V:5 treble 
V:2 bass 
V:4 bass 
V:6 bass 
V:1
!f!"^Allegretto ma non troppo" F =E2 _E- E4 | F E2 D- D4 | F^FG^G- GAB=B | c2 z2 !>![FAcf]2 z2 |: %4
!mf! !1!D!5!B!3!G!2!F !1!E !3!c2 !4!^c | !5!d!2!F!4!B!1!D !5!G !4!F3 | [EF] [EF]2 [EF]- FG [EF]2 | %7
 [DF] [DF]2 [DF]- FG [DF]2 | !1!D!5!B!3!G!2!F !1!E !3!c2 !4!^c | %9
!<(! !5!d!2!F!4!B!1!d !2!g !4!b3!<)! | !1!a!3!c'!4!d'!5![^fe']- e'd' a2 | %11
!f! c'bab- b3 !2!!5![eb]- | [eb]2 !3!!5![eg]2 !2!B !3!!5![df]2 !1!F | %13
 !5!e2 !5!e!5!d- [Bd]!1!F !3!!5![df]2 | !2!!5![eb]2 !3!!5![eg]2 !2!B !3!!5![df]2 !1!F | %15
 !5!e2 !5!e!5!d- [Bd]3 !2!!5![eb]- | [eb]2 !3!!5![eg]2 !2!B !3!!5![df]2 !1!F | %17
 !5!e2 !5!e!5!d- [Bd]!1!F !3!!5![df]2 | !2!!5![eb]2 !3!!5![eg]2 !2!B !3!!5![df]2 !1!F |1 %19
 e2 ed- [Bd]GFE :|2 e2 ed- [Bd]2 || !>![^FAd]2 |:!mf!{GA} BAGB- BA G2 | A2 G^F- z !1!d !5!a2 | %24
{AB} cBAc- cB A2 | B2 AG- z !1!d !5!b2 |!<(!{GA} BAGA B c2 d!<)! |!f! e2 dc- z !1!g !5!e'2 | %28
{cd} edcB A G2 A | ^F2 A[Fd]- [Fd]4 |!mf!{GA} BAGB- BA G2 | A2 G^F- z !1!d !5!a2 | %32
{AB} cBAc- cB A2 | B2 AG- z !1!d !5!b2 |!<(!{GA} BAGA B c2!<)! d |!f! e2 dc- z !1!g !5!e'2 | %36
{Bc} dcBA- AcBA |1 GdBG ^FA d2 :|2 G2 AB c2- c3/2(!1!c/4!2!^c/4 |: %39
!mf! !3!d2) z2 !1!!3![Gc] !2!!4![B^c]2 !1!!3!!5![FBd]- | %40
 [FBd]2 !1!!4![^cg]!2!!3![df]- [df]!1!!5![db]- [db]3/2(!1!=c/4!2!^c/4 | %41
 !3!d2) z2 !1!!3![Gc] !2!!4![B^c]2 !1!!3!!5![FBd]- |"_cresc." [FBd]6 [Bdf]2 | %43
!f! [Be]2 !3![Beg]2 [FB]2 !3![FBd]2 | [B,E]2 !3![B,EG]2 [F,B,]2 !3![F,B,D]2 | %45
!mf! !1!!4![^Fc] !2!!3![GB]2 [GB]- [GB]4 | !5!d c2 B- Bc G2 | %47
 !1!!4![^CG] !2!!3![DF]2 !1!!5![DB]- [DB]4- | [DB]2!<(! !1!D!2!F !4!B!1!c!2!d!4!f!<)! | %49
!f! [Aeg]=Bc[Aef]- [Aef]4- | [Aef]2 g[Aef]- [Aef]g [Aef]2 |{B-d-} [Bdg]^cd[Bdf]- [Bdf]4- | %52
 [Bdf]g[^Gdf][Ae]- [Ae]f [Ae]3/2(!1!c/4!2!^c/4 | %53
!mf! !3!d2) z2 !1!!3![Gc] !2!!4![B^c]2 !1!!3!!5![FBd]- | %54
 [FBd]2 !1!!4![^cg]!2!!3![df]- [df]!1!!5![db]- [db]3/2(!1!=c/4!2!^c/4 | %55
 d2) z2 [Gc] [B^c]2 !1!!3!!5![FBd]- |"_cresc." [FBd]6 !1!!3!!5![Bdf]2 | %57
!f! [Be]2 !3![Beg]2 [FB]2 !3![FBd]2 | [B,E]2 !3![B,EG]2 [F,B,]2 !3![F,B,D]2 | B, C2 D- DC B,2 | %60
 d c2 B- BA G2 |{B-d-} [Bdg]f[Bd][Ae]- [Ae]fGA |1 B2 F[df]- [df]F [ce]3/2(!1!c/4!2!^c/4) :|2 %63
 B6 c2 ||[K:Bbmin][M:4/4][Q:1/4=117]"^Tempo  l'istesso" d6 Bc | d6 Bc |: %66
!mf! !1!d!<(!!2!f!4!b!5!d' !1!e!2!g!3!b!<)!!5!e' | z !2!!4!!5![fbd']- [fbd'][f=ac'] [fb]2 B2 | %68
!mf! =A2"_cresc." =G_G- G=G =A2 | c2 B=A- AB c2 | =B2 c4 d2 | =d2 e2 =e2 f2 | %72
 [Gcg]2 [Bce]4 [Bc=e]2 |!ff! f8 |!mf! !1!d!<(!!2!f!4!b!5!d' !1!e!2!g!3!b!<)!!5!e' | %75
 z !2!!4!!5![fbd']- [fbd'] [f=ac'] [fb]2 [fc']2 |!mf! [dfd'][cc'][dd'][ee']- [ee'][dd'] [Bb]2 | %77
 bagf- fa f2 | !5!c'8 | !5!c'4- c'2 !>![F_Acf]2 |1!f! [_GB_e_g]2 [FBdf]2 [=ac']af[fb]- | %81
 [dfb]fdB =AB c2 :|2!f! =df c2 =edef- | f_ec=A F _E2 F |:[K:Bb] !1!D!5!B!3!G!2!F !1!E !3!c2 !4!^c | %85
 !5!d!2!F!4!B!1!D !5!G !4!F3 | [EF] [EF]2 [EF]- FG [EF]2 | [DF] [DF]2 [DF]- FG [DF]2 | %88
 !1!D!5!B!3!G!2!F !1!E !3!c2 !4!^c |!<(! !5!d!2!F!4!B!1!d !2!g !4!b3!<)! | %90
 !1!a!3!c'!4!d'!5![^fe']- e'd' a2 |!f! c'bab- b3 !2!!5![eb]- | %92
 [eb]2 !3!!5![eg]2 !2!B !3!!5![df]2 !1!F | !5!e2 !5!e!5!d- [Bd]!1!F !3!!5![df]2 | %94
 !2!!5![eb]2 !3!!5![eg]2 !2!B !3!!5![df]2 F | !5!e2 !5!e!5!d- [Bd]3 !2!!5![eb]- | %96
 [eb]2 !3!!5![eg]2 !2!B !3!!5![df]2 !1!F | !5!e2 !5!e!5!d- [Bd]!1!F !3!!5![df]2 | %98
 !2!!5![eb]2 !3!!5![eg]2 !2!B !3!!5![df]2 !1!F |1 e2 ed- [Bd]GFE :|2 %100
 e2 ed- [Bd]2"^r.h." !1!d!2!e || !3!f2 !4!g4 !3!_g2 | %102
 !2!_g!1!f!3!b!1!!3!!5![fbd']- [fbd']!1!!4![db] !1!!3!!5![eac']2 | %103
 !1!!4![db]2 !2!f!4!b !1!d!3!f!2!B!4!d | !1!F2 !3!F!2!=E F2 !1!D!2!_E | !3!F2 !4!G4 !3!_G2 | %106
 _GFB[FBd]- [FBd][DB] [EAc]2 | z2 !3!f!5!b !2!=e!5!b!2!_e!5!b | [Bdb]2 z2 !>![Bdfb]2 z2!fine! |] %109
V:2
 F, =E,2 _E,- E,4 | F, E,2 D,- D,4 | F,^F,G,^G,- G,A,B,=B, | C2 z2 !>![F,,F,]2 z2 |: %4
 z2 [F,B,]2 z2 [F,A,]2 | B,,2 [F,B,]2 B,,2 [F,B,]2 | A,,2 [F,A,]2 F,,2 [F,A,]2 | %7
 B,,2 [F,B,]2 F,,2 [F,B,]2 | z2 [F,B,]2 z2 [F,A,]2 | B,,2 [F,B,]2 [B,,B,]2 [G,,G,]2 | %10
 [^F,,^F,]2 [F,CD]2 [D,,D,]2 [F,CD]2 |"^sempre" [G,,G,]2 [G,B,D]2 [D,,D,]2 [G,B,D]2 | %12
 [G,,G,]2 [E,,E,]2 [D,,D,]2 [F,B,D]2 | [F,,F,]2 [F,A,E]2 [B,,B,]2 [_A,,_A,]2 | %14
 [G,,G,]2 [E,,E,]2 [D,,D,]2 [F,B,D]2 | [F,,F,]2 [F,A,E]2 [B,,B,]2 [F,,F,]2 | %16
 [G,,G,]2 [E,,E,]2 [D,,D,]2 [F,B,D]2 | [F,,F,]2 [F,A,E]2 [B,,B,]2 [_A,,_A,]2 | %18
 [G,,G,]2 [E,,E,]2 [D,,D,]2 [F,B,D]2 |1 [F,,F,]2 [F,A,E]2 [B,,B,]2 [F,A,]2 :|2 %20
 [F,,F,]2 [F,A,E]2 [B,,B,]2 || !>![D,,D,]2 |: [G,,G,]2 [G,B,D]2 [D,,D,]2 [G,B,D]2 | %23
 [^F,,^F,]2 [F,CD]2 [D,,D,]2 [F,CD]2 | [A,,A,]2 [^F,CD]2 [D,,D,]2 [^F,,F,]2 | %25
 [G,,G,]2 [G,B,D]2 [B,,,B,,]2 [D,,D,]2 | [G,,G,]2 [G,B,D]2 [D,,D,]2 [G,B,D]2 | %27
 [C,,C,]2 [G,CE]2 [E,,E,]2 [G,CE]2 | [C,,C,]2 [G,A,E]2 [E,,E,]2 [G,A,C]2 | %29
 [D,,D,]2 [C,C]2 [B,,B,]2 [A,,A,]2 | [G,,G,]2 [G,B,D]2 [D,,D,]2 [G,B,D]2 | %31
 [^F,,^F,]2 [F,CD]2 [D,,D,]2 [F,CD]2 | [A,,A,]2 [^F,CD]2 [D,,D,]2 [^F,,F,]2 | %33
 [G,,G,]2 [G,B,D]2 [B,,,B,,]2 [D,,D,]2 | [G,,G,]2 [G,B,D]2 [D,,D,]2 [G,B,D]2 | %35
 [C,,C,]2 [G,CE]2 [E,,E,]2 [G,CE]2 | [D,,D,]2 [G,B,D]2 [D,,D,]2 [^F,CD]2 |1 %37
 [G,,G,]2 [G,B,D]2 [D,,D,]2 [^F,CD]2 :|2 [G,B,D]4 [A,E]4 |: %39
 [B,,,B,,]2 [D,,D,]2 [E,,E,]2 [=E,,=E,]2 | [F,,F,]2 !2!B,2 [D,,D,]2 [F,B,D]2 | %41
 [B,,,B,,]2 [D,,D,]2 [E,,E,]2 [=E,,=E,]2 | %42
 [F,,F,]2 !3!B,C[K:treble] !1!D!4!F !2!_A3/2(!3!F/4!2!^F/4 | %43
 !>!G2-) G3/2(!3!C/4!2!^C/4 !>!D2-) D3/2[K:bass](!3!F,/4!2!^F,/4 | %44
 !>!G,2-) G,3/2(!3!C,/4!2!^C,/4 !>!D,4) | [E,,E,]2 [G,B,E]2 [B,,,B,,]2 [G,B,E]2 | %46
 [E,,E,]2 [G,B,E]2 [G,,G,]2 [E,,E,]2 | [B,,,B,,]2 [F,B,]2 F,,2 [F,B,]2 | %48
 [B,,,B,,]2 [F,B,]2 [D,,D,]2 [=B,,,=B,,]2 | [C,,C,]2 [F,A,E]2 [F,,F,]2 [=B,,=B,]2 | %50
 [C,C]2 [F,A,E]2 [F,,F,]2 [F,A,E]2 | [B,,B,]2 [F,B,D]2 [F,,F,]2 [F,B,D]2 | %52
 [D,,D,]2 [=B,,,=B,,]2 [C,,C,]2 [F,A,E]2 | [B,,,B,,]2 [D,,D,]2 [E,,E,]2 [=E,,=E,]2 | %54
 [F,,F,]2 !2!B,2 [D,,D,]2 [F,B,D]2 | [B,,,B,,]2 [D,,D,]2 [E,,E,]2 [=E,,=E,]2 | %56
 [F,,F,]2 !3!B,!2!C[K:treble] !1!D!4!F !2!_A3/2(!3!F/4!2!^F/4 | %57
 !>!G2-) G3/2(!3!C/4!2!^C/4 !>!D2-) D3/2[K:bass](!3!F,/4!2!^F,/4 | %58
 !>!G,2-) G,3/2(!3!C,/4!2!^C,/4 !>!D,4) | G,, A,,2 B,,- B,,C, D,2 | B, A,2 G,- G,F, [=E,B,^C]2 | %61
 [F,,F,]2 [F,B,D]2 [F,,F,]2 [F,A,E]2 |1 [B,,B,]2 [F,B,D]2 [F,,F,]2 [F,A,E]2 :|2 %63
 [B,,B,]2 [F,,F,]2 [G,,G,]2 [A,,A,]2 ||[K:Bbmin][M:4/4] [B,,B,]2 [F,B,D]2 [F,,F,]2 [F,B,D]2 | %65
 [B,,B,]2 [F,B,D]2 [F,,F,]2 [F,B,D]2 |: z2 [F,B,D]2 z2 [G,B,E]2 | [F,,F,]2 [E,,E,]2 z2 [F,B,D]2 | %68
 _G,2 =G,=A,- A,G, _G,2 | =A,2 B,C- CB, =A,2 | _A,2 =A,4 B,2 | =B,2 C2 _D2 =D2 | %72
 [B,E]2 [G,C]4 [G,C]2 | C2 ED CD C2 | z2 [F,B,D]2 z2 [G,B,E]2 | %75
 [F,,F,]2 [E,,E,]2 [D,,D,]2 [=A,,,=A,,]2 | [B,,,B,,]2 [F,B,D]2 [G,,G,]2 [G,B,E]2 | %77
 [A,,A,]2 [A,CG]2 [D,,D,]2 [A,DF]2 |[K:treble] !1!c8 | !1!c4- c2[K:bass] !>![F,,F,]2 |1 %80
 [_E,,_E,]2 [F,,F,]2 [F,,F,]2 [F,=A,E]2 | [B,,B,]2 [F,B,D]2 [C,C]2 [F,=A,E]2 :|2 %82
 [=B,,,=B,,]2 [C,,C,]2 [C,,C,]2 [=G,B,C]2 | [F,,F,]2 [_E,,_E,]2 [=D,,=D,]2 [C,,C,]2 |: %84
[K:Bb] z2 [F,B,]2 z2 [F,A,]2 | B,,2 [F,B,]2 B,,2 [F,B,]2 | A,,2 [F,A,]2 F,,2 [F,A,]2 | %87
 B,,2 [F,B,]2 F,,2 [F,B,]2 | z2 [F,B,]2 z2 [F,A,]2 | B,,2 [F,B,]2 [B,,B,]2 [G,,G,]2 | %90
 [^F,,^F,]2 [F,CD]2 [D,,D,]2 [F,CD]2 |"^sempre" [G,,G,]2 [G,B,D]2 [D,,D,]2 [G,B,D]2 | %92
 [G,,G,]2 [E,,E,]2 [D,,D,]2 [F,B,D]2 | [F,,F,]2 [F,A,E]2 [B,,B,]2 [_A,,_A,]2 | %94
 [G,,G,]2 [E,,E,]2 [D,,D,]2 [F,B,D]2 | [F,,F,]2 [F,A,E]2 [B,,B,]2 [F,,F,]2 | %96
 [G,,G,]2 [E,,E,]2 [D,,D,]2 [F,B,D]2 | [F,,F,]2 [F,A,E]2 [B,,B,]2 [_A,,_A,]2 | %98
 [G,,G,]2 [E,,E,]2 [D,,D,]2 [F,B,D]2 |1 [F,,F,]2 [F,A,E]2 [B,,B,]2 [F,A,]2 :|2 %100
 [F,,F,]2 [F,A,E]2 [B,,B,]2"^l.h."[I:staff -1] !3!B!2!c || !1!d2 !2!e4 e2 | %102
 !2!e !1!d3 !4!F2 [F,F]2 | !3!!1![B,F]2 !2!d2 !4!B2 !1!F2 | %104
 !2!D2 !2!D!3!^C !2!D2[I:staff +1] !3!B,!2!=C | !1!D2 !2!E4 E2 | !2!E !1!D3 !4!F,2 [F,,F,]2 | %107
 [B,,B,]8- | [B,,B,]2 z2 !>![B,,,B,,]2 z2 |] %109
V:3
 x8 | x8 | x8 | x8 |: (D4 (E4) | D4) !2!^C !1!D3 | x4 E2 x2 | x4 D2 x2 | (D4 (E4) | D4) d4 | %10
 x4 f2 ^f2 | g4- g3 x | e!1!BeG B x x F | !3!c!1!G!2!A!3!B- x4 | e!1!Be!1!G B x x F | %15
 !3!c!1!G!2!A!3!B- x4 | e!1!Be!1!G B x2 F | !3!c!1!G!2!A!3!B- x4 | e!1!Be!1!G B x x F |1 %19
 cGAB- x4 :|2 cGAB- x2 || x2 |: x8 | x4 F4 | x8 | x4 G4 | x8 | x4 c4 | x8 | x8 | x8 | x4 F4 | x8 | %33
 x4 G4 | x8 | x4 c4 | x8 |1 x8 :|2 x8 |: x8 | x8 | x8 | x8 | !3!g!5!b x2 !3!d!5!f x2 | %44
 !3!G!5!B x2 !3!D!5!F x2 | x8 | !1!G3 G- G2 x2 | x8 | x8 | x8 | x8 | x8 | x8 | x8 | x8 | x8 | x8 | %57
 !3!g!5!b x2 !3!d!5!f x2 | !3!G!5!B x2 !3!D!5!F x2 | x8 | x8 | x8 |1 x8 :|2 x8 || %64
[K:Bbmin][M:4/4] x8 | x8 |: d4 e4 | d3 c B2 F2 | [CE]8 | [E_G]8 | x8 | x8 | x8 | [=Ac]2 cB =AB A2 | %74
 d4 e4 | d3 c B2 c2 | x8 | [cg]3 d- d2 d2 | !2!f !1!=e2 !2!f- f!3!=g !4!a2 | %79
 !1!=e !3!=g2 !2!f- f2 x2 |1 x4 e3 d- | x8 :|2 [F_A]2 [F=A]2 [=E_B]2 [EB][F=A]- | [FA]4 F E2 F |: %84
[K:Bb] (D4 (E4) | D4) !2!^C !1!D3 | x4 E2 x2 | x4 D2 x2 | (D4 (E4) | D4) d4 | x4 f2 [^fa]2 | %91
 g4- g3 x | e!1!Be!1!G B x x F | !3!c!1!G!2!A!3!B- x4 | e!1!Be!1!G B x x F | !3!c!1!G!2!A!3!B- x4 | %96
 e!1!Be!1!G B x2 F | !3!c!1!G!2!A!3!B- x4 | e!1!Be!1!G B x x F |1 cGAB- x4 :|2 cGAB- x4 || x8 | %102
 x8 | x8 | x8 | x8 | x8 | !1!D2 [Bf]2 [B=e]2 [B_e]2 | x8 |] %109
V:4
 x8 | x8 | x8 | x8 |: B,,4 C,4 | x8 | x8 | x8 | B,,4 C,4 | x8 | x8 | x8 | x8 | x8 | x8 | x8 | x8 | %17
 x8 | x8 |1 x8 :|2 x6 || x2 |: x8 | x8 | x8 | x8 | x8 | x8 | x8 | x8 | x8 | x8 | x8 | x8 | x8 | %35
 x8 | x8 |1 x8 :|2 x4 F,2 !>![F,,F,]2 |: x8 | x8 | x8 | x4[K:treble] x4 | x15/2[K:bass] x/ | x8 | %45
 x8 | x8 | x8 | x8 | x8 | x8 | x8 | x8 | x8 | x8 | x8 | x4[K:treble] x4 | x15/2[K:bass] x/ | x8 | %59
 x8 | x8 | x8 |1 x8 :|2 x8 ||[K:Bbmin][M:4/4] x8 | x8 |: [B,,B,]4 [G,,G,]4 | x4 [D,,D,]4 | C,8 | %69
 E,8 | x8 | x8 | x8 | F,8 | [B,,B,]4 [G,,G,]4 | x8 | x8 | x8 | %78
[K:treble] !3!A !4!=G2 !3!A- A!2!B !1!c2 | !4!=G !2!B2 !3!A- A2[K:bass] x2 |1 x8 | x8 :|2 x8 | %83
 x8 |:[K:Bb] B,,4 C,4 | x8 | x8 | x8 | B,,4 C,4 | x8 | x8 | x8 | x8 | x8 | x8 | x8 | x8 | x8 | %98
 x8 |1 x8 :|2 x8 || x8 | x8 | x8 | x8 | x8 | x8 | F,2 z2 z2 z2 | F2 x2 x2 x2 |] %109
V:5
 x8 | x8 | x8 | x8 |: x8 | x8 | x8 | x8 | x8 | x8 | x8 | x8 | x8 | x8 | x8 | x8 | x8 | x8 | x8 |1 %19
 x8 :|2 x6 || x2 |: x8 | x8 | x8 | x8 | x8 | x8 | x8 | x8 | x8 | x8 | x8 | x8 | x8 | x8 | x8 |1 %37
 x8 :|2 x8 |: x8 | x8 | x8 | x8 | x8 | x8 | x8 | x8 | x8 | x8 | x8 | x8 | x8 | x8 | x8 | x8 | x8 | %56
 x8 | x8 | x8 | x8 | x8 | x8 |1 x8 :|2 x8 ||[K:Bbmin][M:4/4] x8 | x8 |: x8 | x8 | x8 | x8 | x8 | %71
 x8 | x8 | x8 | x8 | x8 | x8 | x8 | x8 | x8 |1 x8 | x8 :|2 x8 | x8 |:[K:Bb] x8 | x8 | x8 | x8 | %88
 x8 | x8 | x8 | x8 | x8 | x8 | x8 | x8 | x8 | x8 | x8 |1 x8 :|2 x8 || x8 | x8 | x8 | x8 | x8 | x8 | %107
 !4!B8 | x8 |] %109
V:6
 x8 | x8 | x8 | x8 |: x8 | x8 | x8 | x8 | x8 | x8 | x8 | x8 | x8 | x8 | x8 | x8 | x8 | x8 | x8 |1 %19
 x8 :|2 x6 || x2 |: x8 | x8 | x8 | x8 | x8 | x8 | x8 | x8 | x8 | x8 | x8 | x8 | x8 | x8 | x8 |1 %37
 x8 :|2 x8 |: x8 | x8 | x8 | x4[K:treble] x4 | x15/2[K:bass] x/ | x8 | x8 | x8 | x8 | x8 | x8 | %50
 x8 | x8 | x8 | x8 | x8 | x8 | x4[K:treble] x4 | x15/2[K:bass] x/ | x8 | x8 | x8 | x8 |1 x8 :|2 %63
 x8 ||[K:Bbmin][M:4/4] x8 | x8 |: x8 | x8 | x8 | x8 | x8 | x8 | x8 | x8 | x8 | x8 | x8 | x8 | %78
[K:treble] x8 | x6[K:bass] x2 |1 x8 | x8 :|2 x8 | x8 |:[K:Bb] x8 | x8 | x8 | x8 | x8 | x8 | x8 | %91
 x8 | x8 | x8 | x8 | x8 | x8 | x8 | x8 |1 x8 :|2 x8 || x8 | x8 | x8 | x8 | x8 | x8 | %107
 x2 (_A2 G2 _G2) | x8 |] %109

